app/assets/images/icons/weather/rain.svg

<svg width="32" height="232" viewBox="0 0 32 232" xmlns="http://www.w3.org/2000/svg"><g fill="none" fill-rule="evenodd"><path d="M23.46 2.9c-2.048 0-4.037.753-5.582 2.09C17.128 2.09 14.5 0 11.42 0 8.45 0 5.87 1.944 5.033 4.767 2.142 5.31 0 7.86 0 10.83c0 2.42 1.428 4.627 3.636 5.625.064.03.133.044.202.044h4.86v9.608c0 .27.22.49.49.49s.49-.22.49-.49v-9.61h2.5v14.505c0 .27.22.49.49.49s.49-.22.49-.49V16.5h2.5v11.81c0 .27.22.49.49.49s.49-.22.49-.49V16.5h2.502v14.503c0 .27.22.49.49.49s.49-.22.49-.49V16.5h2.5v9.608c0 .27.22.49.49.49s.49-.22.49-.49v-9.61h6.485c.16 0 .31-.078.403-.21.99-1.433 1.512-3.11 1.512-4.848 0-4.708-3.83-8.54-8.54-8.54zm6.363 12.62H3.946C2.14 14.66.98 12.83.98 10.83c0-2.59 1.937-4.803 4.506-5.144.2-.027.363-.173.412-.37C6.522 2.764 8.794.98 11.42.98c2.9 0 5.332 2.17 5.656 5.05.022.19.152.35.334.41.18.058.382.008.512-.133 1.45-1.565 3.42-2.427 5.54-2.427 4.168 0 7.56 3.39 7.56 7.56 0 1.454-.414 2.86-1.2 4.08z" fill="#3B444F"/><path d="M23.46 42.9c-2.048 0-4.037.753-5.582 2.09-.75-2.9-3.378-4.99-6.457-4.99-2.97 0-5.55 1.944-6.388 4.767C2.142 45.31 0 47.86 0 50.83c0 2.42 1.428 4.627 3.636 5.625.064.03.133.044.202.044h4.86v9.608c0 .27.22.49.49.49s.49-.22.49-.49v-9.61h2.5v14.505c0 .27.22.49.49.49s.49-.22.49-.49V56.5h2.5v11.81c0 .27.22.49.49.49s.49-.22.49-.49V56.5h2.502v14.503c0 .27.22.49.49.49s.49-.22.49-.49V56.5h2.5v9.608c0 .27.22.49.49.49s.49-.22.49-.49v-9.61h6.485c.16 0 .31-.078.403-.21.99-1.433 1.512-3.11 1.512-4.848 0-4.708-3.83-8.54-8.54-8.54zm6.363 12.62H3.946C2.14 54.66.98 52.83.98 50.83c0-2.59 1.937-4.803 4.506-5.144.2-.027.363-.173.412-.37.624-2.553 2.896-4.337 5.523-4.337 2.9 0 5.332 2.17 5.656 5.05.022.19.152.35.334.41.18.058.382.008.512-.133 1.45-1.565 3.42-2.427 5.54-2.427 4.168 0 7.56 3.39 7.56 7.56 0 1.454-.414 2.86-1.2 4.08z" fill="#67737B"/><path d="M23.46 82.9c-2.048 0-4.037.753-5.582 2.09-.75-2.9-3.378-4.99-6.457-4.99-2.97 0-5.55 1.944-6.388 4.767C2.142 85.31 0 87.86 0 90.83c0 2.42 1.428 4.627 3.636 5.625.064.03.133.044.202.044h4.86v9.608c0 .27.22.49.49.49s.49-.22.49-.49v-9.61h2.5v14.505c0 .27.22.49.49.49s.49-.22.49-.49V96.5h2.5v11.81c0 .27.22.49.49.49s.49-.22.49-.49V96.5h2.502v14.503c0 .27.22.49.49.49s.49-.22.49-.49V96.5h2.5v9.608c0 .27.22.49.49.49s.49-.22.49-.49v-9.61h6.485c.16 0 .31-.078.403-.21.99-1.433 1.512-3.11 1.512-4.848 0-4.708-3.83-8.54-8.54-8.54zm6.363 12.62H3.946C2.14 94.66.98 92.83.98 90.83c0-2.59 1.937-4.803 4.506-5.144.2-.027.363-.173.412-.37.624-2.553 2.896-4.337 5.523-4.337 2.9 0 5.332 2.17 5.656 5.05.022.19.152.35.334.41.18.058.382.008.512-.133 1.45-1.565 3.42-2.427 5.54-2.427 4.168 0 7.56 3.39 7.56 7.56 0 1.454-.414 2.86-1.2 4.08z" fill="#fff"/><path d="M23.46 122.9c-2.048 0-4.037.753-5.582 2.09-.75-2.9-3.378-4.99-6.457-4.99-2.97 0-5.55 1.944-6.388 4.767C2.142 125.31 0 127.86 0 130.83c0 2.42 1.428 4.627 3.636 5.625.064.03.133.044.202.044h4.86v9.608c0 .27.22.49.49.49s.49-.22.49-.49v-9.61h2.5v14.505c0 .27.22.49.49.49s.49-.22.49-.49V136.5h2.5v11.81c0 .27.22.49.49.49s.49-.22.49-.49V136.5h2.502v14.503c0 .27.22.49.49.49s.49-.22.49-.49V136.5h2.5v9.608c0 .27.22.49.49.49s.49-.22.49-.49v-9.61h6.485c.16 0 .31-.078.403-.21.99-1.433 1.512-3.11 1.512-4.848 0-4.708-3.83-8.54-8.54-8.54zm6.363 12.62H3.946C2.14 134.66.98 132.83.98 130.83c0-2.59 1.937-4.803 4.506-5.144.2-.027.363-.173.412-.37.624-2.553 2.896-4.337 5.523-4.337 2.9 0 5.332 2.17 5.656 5.05.022.19.152.35.334.41.18.058.382.008.512-.133 1.45-1.565 3.42-2.427 5.54-2.427 4.168 0 7.56 3.39 7.56 7.56 0 1.454-.414 2.86-1.2 4.08z" fill="#206FAC"/></g></svg>

<?xml version="1.0" encoding="UTF-8" standalone="no"?>
<svg width="32px" height="232px" viewBox="0 0 32 232" version="1.1" xmlns="http://www.w3.org/2000/svg" xmlns:xlink="http://www.w3.org/1999/xlink" xmlns:sketch="http://www.bohemiancoding.com/sketch/ns">
    <!-- Generator: Sketch 3.0.3 (7891) - http://www.bohemiancoding.com/sketch -->
    <title>rain</title>
    <desc>Created with Sketch.</desc>
    <defs></defs>
    <g id="Weather" stroke="none" stroke-width="1" fill="none" fill-rule="evenodd" sketch:type="MSPage">
        <path d="M23.461,2.901 C21.412,2.901 19.423,3.653 17.878,4.99 C17.128,2.089 14.5,0 11.421,0 C8.451,0 5.869,1.944 5.032,4.767 C2.141,5.31 0,7.86 0,10.83 C0,13.249 1.428,15.457 3.636,16.455 C3.7,16.484 3.769,16.499 3.838,16.499 L8.698,16.499 L8.698,26.108 C8.698,26.378 8.917,26.597 9.187,26.597 C9.458,26.597 9.677,26.378 9.677,26.108 L9.677,16.499 L12.178,16.499 L12.178,31.003 C12.178,31.273 12.397,31.492 12.668,31.492 C12.939,31.492 13.157,31.273 13.157,31.003 L13.157,16.499 L15.659,16.499 L15.659,28.31 C15.659,28.581 15.878,28.8 16.149,28.8 C16.419,28.8 16.638,28.581 16.638,28.31 L16.638,16.499 L19.14,16.499 L19.14,31.003 C19.14,31.273 19.359,31.492 19.629,31.492 C19.9,31.492 20.119,31.273 20.119,31.003 L20.119,16.499 L22.62,16.499 L22.62,26.108 C22.62,26.378 22.839,26.597 23.11,26.597 C23.38,26.597 23.599,26.378 23.599,26.108 L23.599,16.499 L30.085,16.499 C30.246,16.499 30.396,16.42 30.488,16.288 C31.477,14.855 32,13.179 32,11.44 C32,6.732 28.17,2.901 23.461,2.901 L23.461,2.901 Z M29.823,15.52 L3.946,15.52 C2.141,14.66 0.979,12.831 0.979,10.83 C0.979,8.239 2.917,6.027 5.486,5.686 C5.686,5.659 5.849,5.513 5.898,5.317 C6.522,2.763 8.794,0.979 11.421,0.979 C14.321,0.979 16.752,3.15 17.076,6.029 C17.098,6.219 17.228,6.38 17.41,6.44 C17.591,6.498 17.792,6.448 17.922,6.307 C19.373,4.742 21.341,3.88 23.461,3.88 C27.63,3.88 31.021,7.271 31.021,11.44 C31.021,12.894 30.608,14.299 29.823,15.52 L29.823,15.52 Z" id="Imported-Layers" fill="#3B444F" sketch:type="MSShapeGroup"></path>
        <path d="M23.461,42.901 C21.412,42.901 19.423,43.653 17.878,44.99 C17.128,42.089 14.5,40 11.421,40 C8.451,40 5.869,41.944 5.032,44.767 C2.141,45.31 0,47.86 0,50.83 C0,53.249 1.428,55.457 3.636,56.455 C3.7,56.484 3.769,56.499 3.838,56.499 L8.698,56.499 L8.698,66.108 C8.698,66.378 8.917,66.597 9.187,66.597 C9.458,66.597 9.677,66.378 9.677,66.108 L9.677,56.499 L12.178,56.499 L12.178,71.003 C12.178,71.273 12.397,71.492 12.668,71.492 C12.939,71.492 13.157,71.273 13.157,71.003 L13.157,56.499 L15.659,56.499 L15.659,68.31 C15.659,68.581 15.878,68.8 16.149,68.8 C16.419,68.8 16.638,68.581 16.638,68.31 L16.638,56.499 L19.14,56.499 L19.14,71.003 C19.14,71.273 19.359,71.492 19.629,71.492 C19.9,71.492 20.119,71.273 20.119,71.003 L20.119,56.499 L22.62,56.499 L22.62,66.108 C22.62,66.378 22.839,66.597 23.11,66.597 C23.38,66.597 23.599,66.378 23.599,66.108 L23.599,56.499 L30.085,56.499 C30.246,56.499 30.396,56.42 30.488,56.288 C31.477,54.855 32,53.179 32,51.44 C32,46.732 28.17,42.901 23.461,42.901 L23.461,42.901 Z M29.823,55.52 L3.946,55.52 C2.141,54.66 0.979,52.831 0.979,50.83 C0.979,48.239 2.917,46.027 5.486,45.686 C5.686,45.659 5.849,45.513 5.898,45.317 C6.522,42.763 8.794,40.979 11.421,40.979 C14.321,40.979 16.752,43.15 17.076,46.029 C17.098,46.219 17.228,46.38 17.41,46.44 C17.591,46.498 17.792,46.448 17.922,46.307 C19.373,44.742 21.341,43.88 23.461,43.88 C27.63,43.88 31.021,47.271 31.021,51.44 C31.021,52.894 30.608,54.299 29.823,55.52 L29.823,55.52 Z" id="Imported-Layers-11" fill="#67737B" sketch:type="MSShapeGroup"></path>
        <path d="M23.461,82.901 C21.412,82.901 19.423,83.653 17.878,84.99 C17.128,82.089 14.5,80 11.421,80 C8.451,80 5.869,81.944 5.032,84.767 C2.141,85.31 0,87.86 0,90.83 C0,93.249 1.428,95.457 3.636,96.455 C3.7,96.484 3.769,96.499 3.838,96.499 L8.698,96.499 L8.698,106.108 C8.698,106.378 8.917,106.597 9.187,106.597 C9.458,106.597 9.677,106.378 9.677,106.108 L9.677,96.499 L12.178,96.499 L12.178,111.003 C12.178,111.273 12.397,111.492 12.668,111.492 C12.939,111.492 13.157,111.273 13.157,111.003 L13.157,96.499 L15.659,96.499 L15.659,108.31 C15.659,108.581 15.878,108.8 16.149,108.8 C16.419,108.8 16.638,108.581 16.638,108.31 L16.638,96.499 L19.14,96.499 L19.14,111.003 C19.14,111.273 19.359,111.492 19.629,111.492 C19.9,111.492 20.119,111.273 20.119,111.003 L20.119,96.499 L22.62,96.499 L22.62,106.108 C22.62,106.378 22.839,106.597 23.11,106.597 C23.38,106.597 23.599,106.378 23.599,106.108 L23.599,96.499 L30.085,96.499 C30.246,96.499 30.396,96.42 30.488,96.288 C31.477,94.855 32,93.179 32,91.44 C32,86.732 28.17,82.901 23.461,82.901 L23.461,82.901 Z M29.823,95.52 L3.946,95.52 C2.141,94.66 0.979,92.831 0.979,90.83 C0.979,88.239 2.917,86.027 5.486,85.686 C5.686,85.659 5.849,85.513 5.898,85.317 C6.522,82.763 8.794,80.979 11.421,80.979 C14.321,80.979 16.752,83.15 17.076,86.029 C17.098,86.219 17.228,86.38 17.41,86.44 C17.591,86.498 17.792,86.448 17.922,86.307 C19.373,84.742 21.341,83.88 23.461,83.88 C27.63,83.88 31.021,87.271 31.021,91.44 C31.021,92.894 30.608,94.299 29.823,95.52 L29.823,95.52 Z" id="Imported-Layers-12" fill="#FFFFFF" sketch:type="MSShapeGroup"></path>
        <path d="M23.461,122.901 C21.412,122.901 19.423,123.653 17.878,124.99 C17.128,122.089 14.5,120 11.421,120 C8.451,120 5.869,121.944 5.032,124.767 C2.141,125.31 0,127.86 0,130.83 C0,133.249 1.428,135.457 3.636,136.455 C3.7,136.484 3.769,136.499 3.838,136.499 L8.698,136.499 L8.698,146.108 C8.698,146.378 8.917,146.597 9.187,146.597 C9.458,146.597 9.677,146.378 9.677,146.108 L9.677,136.499 L12.178,136.499 L12.178,151.003 C12.178,151.273 12.397,151.492 12.668,151.492 C12.939,151.492 13.157,151.273 13.157,151.003 L13.157,136.499 L15.659,136.499 L15.659,148.31 C15.659,148.581 15.878,148.8 16.149,148.8 C16.419,148.8 16.638,148.581 16.638,148.31 L16.638,136.499 L19.14,136.499 L19.14,151.003 C19.14,151.273 19.359,151.492 19.629,151.492 C19.9,151.492 20.119,151.273 20.119,151.003 L20.119,136.499 L22.62,136.499 L22.62,146.108 C22.62,146.378 22.839,146.597 23.11,146.597 C23.38,146.597 23.599,146.378 23.599,146.108 L23.599,136.499 L30.085,136.499 C30.246,136.499 30.396,136.42 30.488,136.288 C31.477,134.855 32,133.179 32,131.44 C32,126.732 28.17,122.901 23.461,122.901 L23.461,122.901 Z M29.823,135.52 L3.946,135.52 C2.141,134.66 0.979,132.831 0.979,130.83 C0.979,128.239 2.917,126.027 5.486,125.686 C5.686,125.659 5.849,125.513 5.898,125.317 C6.522,122.763 8.794,120.979 11.421,120.979 C14.321,120.979 16.752,123.15 17.076,126.029 C17.098,126.219 17.228,126.38 17.41,126.44 C17.591,126.498 17.792,126.448 17.922,126.307 C19.373,124.742 21.341,123.88 23.461,123.88 C27.63,123.88 31.021,127.271 31.021,131.44 C31.021,132.894 30.608,134.299 29.823,135.52 L29.823,135.52 Z" id="Imported-Layers-13" fill="#206FAC" sketch:type="MSShapeGroup"></path>
    </g>
</svg>
